svg/color/imx.svg

<svg width="64" height="65" viewBox="0 0 64 65" fill="none" xmlns="http://www.w3.org/2000/svg">
<rect y="0.303711" width="64" height="64" rx="32" fill="black"/>
<rect x="0.5" y="0.803711" width="63" height="63" rx="31.5" stroke="white" stroke-opacity="0.15"/>
<path d="M47.3926 16.5631H51.4623L34.9604 35.396C34.5423 35.8696 34.5144 36.594 34.9325 37.0955L44.4378 48.1556H40.2009L31.4203 37.9034L30.9743 37.3462C30.5562 36.8726 30.5841 36.1204 31.0022 35.6468L47.3926 16.5631Z" fill="white"/>
<path d="M38.2219 37.0957C37.9432 36.7892 37.8595 36.3435 37.9432 35.9534C38.0268 35.7306 38.1662 35.5077 38.3334 35.3405L39.4205 34.1426L51.5461 48.1558H47.6993C47.6993 48.1558 40.5913 39.8537 38.2219 37.0957Z" fill="white"/>
<path d="M17.037 48.1559H12.8L25.7897 33.1397C26.2078 32.6661 26.2078 31.9417 25.7897 31.4681L12.9115 16.5634H16.9813L29.943 31.5796C30.2775 32.0253 30.3333 32.6661 29.9709 33.084C26.5702 37.0121 17.037 48.1559 17.037 48.1559Z" fill="white"/>
<path d="M24.1172 16.5631H20.2147L32.2288 30.4649C32.2288 30.4649 32.2566 30.4371 33.5946 28.8491C33.957 28.4312 34.0406 27.9019 33.6225 27.484C31.1138 24.9209 24.1172 16.5631 24.1172 16.5631Z" fill="white"/>
<path d="M35.8246 26.2582L44.1592 16.5631H40.201L35.8525 21.6335L34.5981 23.1101C34.18 23.5837 34.1521 24.308 34.5703 24.8095C34.8769 25.1717 35.8246 26.2582 35.8246 26.2582Z" fill="white"/>
<path d="M28.5771 38.4604L20.2426 48.1555H24.1729L28.5214 43.0851L29.7757 41.6086C30.1939 41.1349 30.2217 40.4106 29.8036 39.9091C29.497 39.547 28.5771 38.4604 28.5771 38.4604Z" fill="white"/>
</svg>

<svg xmlns="http://www.w3.org/2000/svg" width="64" height="65" fill="none" viewBox="0 0 64 65"><rect width="64" height="64" y=".304" fill="#000" rx="32"/><rect width="63" height="63" x=".5" y=".804" stroke="#fff" stroke-opacity=".15" rx="31.5"/><path fill="#fff" d="M47.393 16.563h4.07L34.96 35.396a1.31 1.31 0 0 0-.028 1.7l9.506 11.06H40.2l-8.78-10.253-.447-.557c-.418-.473-.39-1.226.028-1.7z"/><path fill="#fff" d="M38.222 37.096c-.279-.307-.363-.752-.279-1.143.084-.222.223-.445.39-.613l1.087-1.197 12.126 14.013H47.7s-7.108-8.302-9.477-11.06m-21.186 11.06H12.8L25.79 33.14a1.27 1.27 0 0 0 0-1.672L12.912 16.563h4.07l12.96 15.017c.334.445.39 1.086.028 1.504-3.4 3.928-12.934 15.072-12.934 15.072m7.081-31.593h-3.902l12.014 13.902s.028-.028 1.366-1.616c.362-.418.446-.947.028-1.365-2.51-2.563-9.506-10.92-9.506-10.92m11.708 9.694 8.334-9.695h-3.958l-4.349 5.07-1.254 1.477a1.31 1.31 0 0 0-.028 1.7 223 223 0 0 0 1.255 1.448M28.577 38.46l-8.334 9.696h3.93l4.348-5.07 1.255-1.477a1.31 1.31 0 0 0 .028-1.7z"/></svg>
